X:4
T:GOD PLACE : GOOD PRICELESS
M:4/4
L:1/8
Q:1/4=150
K:D
|: D2 FA dFAd | A2 ce aece | B2 df bfdf | G2 Bd gdBd :|
| d2 f2 a2 d'2 | c'2 a2 f2 e2 | b2 f2 d2 B2 | g2 d2 B2 G2 |
